X:2851
T:Carnival of Venice
T:Karneval i Venedig
C:anon.
O:Italy
Z:Transcribed by Frank Nordberg - http://www.musicaviva.com
F:http://www.abc-notation.com/abcs/ca/carnival-of-venice/carnival-of-venice-1.abc
M:3/4
L:1/4
K:C
G|A z G|F z E|FD2|z DE|F2G|A2G|E3|z z G|
c z G|F z E|FD2|z DE|F2G|A2G|C3|z z |]
W:
W:
W:  From Musica Viva - http://www.musicaviva.com
W:  the Internet center for free sheet music downloads.
